apps/docs/public/icons/meta.svg

<svg width="98" height="65" viewBox="0 0 98 65" fill="none" xmlns="http://www.w3.org/2000/svg">
	<path d="M10.4844 42.5182C10.4844 46.2245 11.2979 49.0701 12.3612 50.7916C13.7553 53.0464 15.8346 54.0017 17.9544 54.0017C20.6886 54.0017 23.1899 53.3232 28.0101 46.6565C31.8717 41.3131 36.4219 33.8126 39.4835 29.1105L44.6683 21.1443C48.27 15.6118 52.4388 9.4616 57.2186 5.29282C61.1207 1.89031 65.3299 0 69.5662 0C76.6785 0 83.4531 4.12151 88.6379 11.8515C94.3122 20.3173 97.0667 30.9806 97.0667 41.9848C97.0667 48.5266 95.7772 53.3333 93.5831 57.1308C91.4633 60.8034 87.3316 64.4726 80.3814 64.4726V54.0017C86.3325 54.0017 87.8177 48.5333 87.8177 42.2751C87.8177 33.357 85.7384 23.4599 81.1578 16.3882C77.9072 11.3722 73.6945 8.30715 69.0599 8.30715C64.0472 8.30715 60.0135 12.0878 55.4802 18.8287C53.07 22.4101 50.5958 26.7747 47.8177 31.6996L44.7595 37.1173C38.616 48.0101 37.0599 50.4911 33.9882 54.5856C28.6042 61.7553 24.0067 64.4726 17.9544 64.4726C10.7747 64.4726 6.23458 61.3637 3.42277 56.6785C1.12741 52.8608 0 47.8515 0 42.1435L10.4844 42.5182Z" fill="#0081FB" />
	<path d="M8 12.5907C12.8067 5.1814 19.7435 0 27.6996 0C32.3072 0 36.8878 1.36372 41.6709 5.26922C46.903 9.53927 52.4793 16.5705 59.4363 28.1587L61.9308 32.3173C67.9527 42.3494 71.3789 47.5106 73.384 49.9443C75.9629 53.07 77.7688 54.0017 80.1148 54.0017C86.0658 54.0017 87.551 48.5333 87.551 42.2751L96.8 41.9848C96.8 48.5266 95.5105 53.3333 93.3165 57.1308C91.1966 60.8034 87.065 64.4726 80.1148 64.4726C75.7941 64.4726 71.9662 63.5342 67.7333 59.541C64.4793 56.476 60.6751 51.0312 57.7485 46.1367L49.043 31.5949C44.6751 24.297 40.6684 18.8557 38.3494 16.3915C35.8548 13.7418 32.6481 10.5418 27.5308 10.5418C23.389 10.5418 19.8717 13.4481 16.9283 17.8937L8 12.5907Z" fill="url(#paint0_linear_1_7)" />
	<path d="M27.7975 10.5418C23.6557 10.5418 20.1384 13.4481 17.1949 17.8937C13.0329 24.1755 10.4844 33.5325 10.4844 42.5182C10.4844 46.2245 11.2979 49.0701 12.3612 50.7916L3.42277 56.6785C1.12741 52.8608 0 47.8515 0 42.1435C0 31.7637 2.84893 20.9451 8.26666 12.5907C13.0734 5.1814 20.0101 0 27.9662 0L27.7975 10.5418Z" fill="url(#paint1_linear_1_7)" />
	<defs>
		<linearGradient id="paint0_linear_1_7" x1="13.4713" y1="39.4937" x2="86.4925" y2="43.5249" gradientUnits="userSpaceOnUse">
			<stop stop-color="#0064E1" />
			<stop offset="0.4" stop-color="#0064E1" />
			<stop offset="0.83" stop-color="#0073EE" />
			<stop offset="1" stop-color="#0082FB" />
		</linearGradient>
		<linearGradient id="paint1_linear_1_7" x1="15.1899" y1="46.9199" x2="15.1899" y2="22.2785" gradientUnits="userSpaceOnUse">
			<stop stop-color="#0082FB" />
			<stop offset="1" stop-color="#0064E0" />
		</linearGradient>
	</defs>
</svg>

<svg xmlns="http://www.w3.org/2000/svg" width="98" height="65" fill="none" viewBox="0 0 98 65"><path fill="#0081fb" d="M10.484 42.518c0 3.706.814 6.552 1.877 8.274 1.394 2.254 3.474 3.21 5.593 3.21 2.735 0 5.236-.679 10.056-7.346 3.862-5.343 8.412-12.843 11.473-17.545l5.185-7.967c3.602-5.532 7.77-11.682 12.55-15.851C61.122 1.89 65.33 0 69.567 0c7.112 0 13.887 4.122 19.072 11.852 5.674 8.465 8.429 19.129 8.429 30.133 0 6.542-1.29 11.348-3.484 15.146-2.12 3.672-6.251 7.342-13.202 7.342V54.002c5.951 0 7.437-5.469 7.437-11.727 0-8.918-2.08-18.815-6.66-25.887-3.25-5.016-7.463-8.08-12.098-8.08-5.013 0-9.047 3.78-13.58 10.52-2.41 3.582-4.884 7.947-7.662 12.872l-3.058 5.417c-6.144 10.893-7.7 13.374-10.772 17.469-5.384 7.17-9.981 9.887-16.034 9.887-7.18 0-11.72-3.11-14.531-7.794C1.127 52.86 0 47.852 0 42.144z"/><path fill="url(#a)" d="M8 12.59C12.807 5.182 19.744 0 27.7 0c4.607 0 9.188 1.364 13.97 5.27 5.233 4.27 10.81 11.3 17.766 22.889l2.495 4.158c6.022 10.032 9.448 15.194 11.453 17.627 2.579 3.126 4.385 4.058 6.73 4.058 5.952 0 7.437-5.469 7.437-11.727l9.249-.29c0 6.542-1.29 11.348-3.483 15.146-2.12 3.672-6.252 7.342-13.202 7.342-4.32 0-8.149-.939-12.382-4.932-3.254-3.065-7.058-8.51-9.985-13.404l-8.705-14.542c-4.368-7.298-8.375-12.74-10.694-15.203-2.494-2.65-5.7-5.85-10.818-5.85-4.142 0-7.66 2.906-10.603 7.352z"/><path fill="url(#b)" d="M27.798 10.542c-4.142 0-7.66 2.906-10.603 7.352-4.162 6.282-6.71 15.639-6.71 24.624 0 3.706.813 6.552 1.876 8.274l-8.938 5.886C1.127 52.862 0 47.853 0 42.145c0-10.38 2.849-21.199 8.267-29.553C13.073 5.18 20.01 0 27.967 0z"/><defs><linearGradient id="a" x1="13.471" x2="86.493" y1="39.494" y2="43.525" gradientUnits="userSpaceOnUse"><stop stop-color="#0064e1"/><stop offset=".4" stop-color="#0064e1"/><stop offset=".83" stop-color="#0073ee"/><stop offset="1" stop-color="#0082fb"/></linearGradient><linearGradient id="b" x1="15.19" x2="15.19" y1="46.92" y2="22.279" gradientUnits="userSpaceOnUse"><stop stop-color="#0082fb"/><stop offset="1" stop-color="#0064e0"/></linearGradient></defs></svg>
